svg/color/dna.svg

<?xml version="1.0" encoding="UTF-8" ?>
<!DOCTYPE svg PUBLIC "-//W3C//DTD SVG 1.1//EN" "http://www.w3.org/Graphics/SVG/1.1/DTD/svg11.dtd">
<svg width="250pt" height="250pt" viewBox="0 0 250 250" version="1.1" xmlns="http://www.w3.org/2000/svg">
<g id="#ffffffff">
<path fill="#ffffff" opacity="1.00" d=" M 0.00 0.00 L 250.00 0.00 L 250.00 250.00 L 0.00 250.00 L 0.00 0.00 M 44.35 74.43 C 40.78 76.63 40.88 82.32 44.46 84.45 C 48.28 87.30 54.30 83.73 53.69 79.02 C 53.73 74.51 47.88 71.71 44.35 74.43 M 193.30 74.29 C 189.19 76.11 189.27 82.72 193.34 84.53 C 197.03 86.74 202.19 83.27 201.68 79.04 C 201.69 75.02 196.75 72.23 193.30 74.29 M 26.19 75.24 C 21.93 77.23 21.53 83.87 25.57 86.32 C 29.52 89.31 35.85 85.94 35.62 81.02 C 35.91 76.36 30.24 72.86 26.19 75.24 M 218.19 75.26 C 213.60 76.79 212.63 83.68 216.59 86.43 C 220.28 89.49 226.74 86.81 226.88 81.93 C 227.61 77.40 222.37 73.31 218.19 75.26 M 64.41 76.54 C 60.22 78.67 61.91 86.50 66.97 85.78 C 70.96 86.17 73.10 81.03 70.98 78.02 C 69.62 75.83 66.59 75.77 64.41 76.54 M 172.50 76.66 C 168.42 78.39 168.23 84.81 172.28 86.67 C 176.30 89.24 181.96 84.38 180.12 80.01 C 179.24 76.79 175.43 75.45 172.50 76.66 M 82.36 81.54 C 78.84 83.33 79.83 89.73 84.00 89.74 C 87.84 90.60 90.14 85.85 88.23 82.87 C 86.97 80.92 84.33 80.89 82.36 81.54 M 151.96 86.99 C 149.86 91.39 156.06 95.89 159.62 92.66 C 162.38 90.81 161.75 87.13 160.12 84.76 C 157.26 83.18 153.23 83.60 151.96 86.99 M 93.46 89.86 C 93.21 91.79 93.35 94.69 96.03 94.50 C 98.88 94.93 98.84 91.74 98.69 89.80 C 98.02 89.48 96.68 88.85 96.01 88.54 C 95.38 88.87 94.10 89.53 93.46 89.86 M 141.61 95.88 C 141.59 97.38 141.59 98.87 141.60 100.37 C 143.53 100.76 145.50 100.75 147.44 100.43 C 147.87 98.04 147.69 95.50 145.14 94.41 C 143.97 94.91 142.79 95.40 141.61 95.88 M 103.57 97.45 C 103.56 98.50 103.56 99.55 103.55 100.61 C 104.89 100.64 106.24 100.66 107.59 100.68 C 107.57 99.56 107.55 98.45 107.53 97.34 C 106.21 97.36 104.89 97.40 103.57 97.45 M 30.54 97.86 C 30.42 114.24 30.44 130.64 30.58 147.02 C 30.31 150.68 33.09 154.61 36.93 154.69 C 45.99 155.62 55.71 156.17 64.13 152.07 C 70.65 148.91 75.84 143.05 78.06 136.13 C 81.46 125.92 78.66 114.22 71.91 106.00 C 68.04 101.27 62.25 97.98 56.05 97.92 C 47.55 97.75 39.04 97.92 30.54 97.86 M 187.33 98.57 C 184.67 99.23 182.48 101.21 181.61 103.82 C 175.43 118.63 168.48 133.13 163.15 148.28 C 161.38 152.18 166.10 156.80 169.96 154.95 C 172.87 153.25 175.01 150.48 178.01 148.90 C 186.09 144.09 196.84 144.08 204.78 149.19 C 207.41 150.81 209.36 153.32 212.01 154.90 C 215.87 156.87 220.78 152.15 218.86 148.22 C 212.65 133.10 206.12 118.12 199.78 103.05 C 197.86 98.24 191.78 97.45 187.33 98.57 M 143.72 106.97 C 143.63 117.94 143.80 128.91 143.70 139.89 C 131.70 129.74 120.27 118.94 108.42 108.62 C 103.33 104.19 96.49 102.23 89.82 102.40 C 89.89 117.28 89.78 132.16 89.83 147.04 C 89.71 149.86 92.16 152.49 95.00 152.49 C 97.91 152.58 100.57 149.97 100.33 147.02 C 100.41 135.97 100.20 124.91 100.48 113.85 C 102.38 115.14 104.27 116.45 106.00 117.96 C 116.83 127.43 127.42 137.20 138.47 146.42 C 142.88 150.15 148.81 151.20 154.42 151.35 C 154.45 136.55 154.54 121.75 154.28 106.96 C 154.43 104.08 152.00 101.24 149.03 101.41 C 146.03 101.17 143.52 104.06 143.72 106.97 M 132.64 107.54 C 132.62 108.71 132.61 109.89 132.61 111.07 C 133.21 111.45 134.39 112.22 134.99 112.60 C 135.66 112.26 137.01 111.57 137.68 111.23 C 137.63 109.93 137.58 108.64 137.52 107.34 C 135.89 107.38 134.26 107.45 132.64 107.54 M 110.41 142.34 C 110.37 143.48 110.32 144.61 110.27 145.75 C 111.38 145.68 112.48 145.61 113.59 145.54 C 113.53 144.55 113.47 143.56 113.41 142.58 C 112.41 142.49 111.41 142.41 110.41 142.34 M 97.46 154.45 C 97.38 156.12 97.39 157.79 97.49 159.47 C 99.17 159.39 101.48 160.26 102.41 158.32 C 102.75 157.19 102.59 155.98 102.15 154.91 C 100.74 154.01 99.02 154.47 97.46 154.45 M 148.39 156.39 C 148.44 157.41 148.49 158.43 148.55 159.46 C 149.50 159.43 150.45 159.41 151.40 159.39 C 151.45 158.41 151.51 157.43 151.56 156.45 C 150.50 156.43 149.44 156.41 148.39 156.39 M 84.40 164.84 C 84.66 167.82 87.94 167.94 90.20 167.39 C 90.65 166.21 91.10 165.03 91.56 163.85 C 91.23 163.32 90.58 162.27 90.25 161.74 C 89.67 161.42 88.50 160.76 87.92 160.44 C 86.12 161.28 83.73 162.38 84.40 164.84 M 159.66 162.61 C 159.61 163.92 159.57 165.23 159.55 166.54 C 161.12 166.50 164.62 167.64 164.44 165.07 C 165.11 162.00 161.64 162.14 159.66 162.61 M 26.44 164.60 C 22.10 166.55 21.99 173.51 26.31 175.54 C 30.58 178.18 36.42 173.71 35.26 168.92 C 34.62 164.96 29.94 162.93 26.44 164.60 M 69.95 173.83 C 72.77 174.64 74.61 172.30 75.58 170.02 C 74.92 167.18 72.14 164.20 69.04 165.93 C 65.46 167.37 66.03 173.41 69.95 173.83 M 171.59 171.47 C 173.19 171.51 174.79 171.50 176.39 171.45 C 176.91 169.23 177.43 165.41 174.03 165.56 C 170.57 165.27 171.05 169.24 171.59 171.47 M 218.29 166.29 C 214.89 168.41 215.41 174.35 219.19 175.80 C 222.47 177.53 227.03 174.74 226.84 170.99 C 227.32 166.66 221.69 163.59 218.29 166.29 M 48.26 167.23 C 45.31 168.93 45.41 173.85 48.35 175.52 C 51.47 177.91 56.39 174.80 55.83 170.99 C 55.86 167.36 51.14 165.09 48.26 167.23 M 186.34 168.36 C 184.83 169.45 184.88 171.76 185.56 173.33 C 187.19 175.96 192.04 175.28 192.57 172.05 C 193.53 168.62 188.87 165.83 186.34 168.36 M 201.34 168.29 C 198.88 169.91 198.85 173.90 201.38 175.48 C 204.00 177.67 208.40 175.32 208.33 171.99 C 208.60 168.55 204.06 166.01 201.34 168.29 Z" />
<path fill="#ffffff" opacity="1.00" d=" M 38.41 105.97 C 46.60 105.61 55.64 104.30 62.85 109.22 C 74.60 116.73 74.67 136.40 63.00 144.03 C 55.80 149.06 46.67 147.24 38.48 147.25 C 38.38 133.49 38.52 119.73 38.41 105.97 Z" />
<path fill="#ffffff" opacity="1.00" d=" M 191.00 105.08 C 193.33 108.95 194.86 113.21 196.74 117.30 C 200.08 125.13 203.82 132.80 206.79 140.78 C 201.92 139.42 197.09 137.53 191.95 137.58 C 186.39 137.28 181.08 139.08 175.91 140.89 C 176.32 138.80 177.04 136.79 177.93 134.86 C 182.32 124.95 186.42 114.90 191.00 105.08 Z" />
</g>
<g id="#f15d34ff">
<path fill="#f15d34" opacity="1.00" d=" M 44.35 74.43 C 47.88 71.71 53.73 74.51 53.69 79.02 C 54.30 83.73 48.28 87.30 44.46 84.45 C 40.88 82.32 40.78 76.63 44.35 74.43 Z" />
<path fill="#f15d34" opacity="1.00" d=" M 193.30 74.29 C 196.75 72.23 201.69 75.02 201.68 79.04 C 202.19 83.27 197.03 86.74 193.34 84.53 C 189.27 82.72 189.19 76.11 193.30 74.29 Z" />
<path fill="#f15d34" opacity="1.00" d=" M 26.19 75.24 C 30.24 72.86 35.91 76.36 35.62 81.02 C 35.85 85.94 29.52 89.31 25.57 86.32 C 21.53 83.87 21.93 77.23 26.19 75.24 Z" />
<path fill="#f15d34" opacity="1.00" d=" M 218.19 75.26 C 222.37 73.31 227.61 77.40 226.88 81.93 C 226.74 86.81 220.28 89.49 216.59 86.43 C 212.63 83.68 213.60 76.79 218.19 75.26 Z" />
<path fill="#f15d34" opacity="1.00" d=" M 64.41 76.54 C 66.59 75.77 69.62 75.83 70.98 78.02 C 73.10 81.03 70.96 86.17 66.97 85.78 C 61.91 86.50 60.22 78.67 64.41 76.54 Z" />
<path fill="#f15d34" opacity="1.00" d=" M 172.50 76.66 C 175.43 75.45 179.24 76.79 180.12 80.01 C 181.96 84.38 176.30 89.24 172.28 86.67 C 168.23 84.81 168.42 78.39 172.50 76.66 Z" />
<path fill="#f15d34" opacity="1.00" d=" M 82.36 81.54 C 84.33 80.89 86.97 80.92 88.23 82.87 C 90.14 85.85 87.84 90.60 84.00 89.74 C 79.83 89.73 78.84 83.33 82.36 81.54 Z" />
<path fill="#f15d34" opacity="1.00" d=" M 151.96 86.99 C 153.23 83.60 157.26 83.18 160.12 84.76 C 161.75 87.13 162.38 90.81 159.62 92.66 C 156.06 95.89 149.86 91.39 151.96 86.99 Z" />
<path fill="#f15d34" opacity="1.00" d=" M 93.46 89.86 C 94.10 89.53 95.38 88.87 96.01 88.54 C 96.68 88.85 98.02 89.48 98.69 89.80 C 98.84 91.74 98.88 94.93 96.03 94.50 C 93.35 94.69 93.21 91.79 93.46 89.86 Z" />
<path fill="#f15d34" opacity="1.00" d=" M 141.61 95.88 C 142.79 95.40 143.97 94.91 145.14 94.41 C 147.69 95.50 147.87 98.04 147.44 100.43 C 145.50 100.75 143.53 100.76 141.60 100.37 C 141.59 98.87 141.59 97.38 141.61 95.88 Z" />
<path fill="#f15d34" opacity="1.00" d=" M 103.57 97.45 C 104.89 97.40 106.21 97.36 107.53 97.34 C 107.55 98.45 107.57 99.56 107.59 100.68 C 106.24 100.66 104.89 100.64 103.55 100.61 C 103.56 99.55 103.56 98.50 103.57 97.45 Z" />
<path fill="#f15d34" opacity="1.00" d=" M 132.64 107.54 C 134.26 107.45 135.89 107.38 137.52 107.34 C 137.58 108.64 137.63 109.93 137.68 111.23 C 137.01 111.57 135.66 112.26 134.99 112.60 C 134.39 112.22 133.21 111.45 132.61 111.07 C 132.61 109.89 132.62 108.71 132.64 107.54 Z" />
</g>
<g id="#403f41ff">
<path fill="#403f41" opacity="1.00" d=" M 30.54 97.86 C 39.04 97.92 47.55 97.75 56.05 97.92 C 62.25 97.98 68.04 101.27 71.91 106.00 C 78.66 114.22 81.46 125.92 78.06 136.13 C 75.84 143.05 70.65 148.91 64.13 152.07 C 55.71 156.17 45.99 155.62 36.93 154.69 C 33.09 154.61 30.31 150.68 30.58 147.02 C 30.44 130.64 30.42 114.24 30.54 97.86 M 38.41 105.97 C 38.52 119.73 38.38 133.49 38.48 147.25 C 46.67 147.24 55.80 149.06 63.00 144.03 C 74.67 136.40 74.60 116.73 62.85 109.22 C 55.64 104.30 46.60 105.61 38.41 105.97 Z" />
<path fill="#403f41" opacity="1.00" d=" M 187.33 98.57 C 191.78 97.45 197.86 98.24 199.78 103.05 C 206.12 118.12 212.65 133.10 218.86 148.22 C 220.78 152.15 215.87 156.87 212.01 154.90 C 209.36 153.32 207.41 150.81 204.78 149.19 C 196.84 144.08 186.09 144.09 178.01 148.90 C 175.01 150.48 172.87 153.25 169.96 154.95 C 166.10 156.80 161.38 152.18 163.15 148.28 C 168.48 133.13 175.43 118.63 181.61 103.82 C 182.48 101.21 184.67 99.23 187.33 98.57 M 191.00 105.08 C 186.42 114.90 182.32 124.95 177.93 134.86 C 177.04 136.79 176.32 138.80 175.91 140.89 C 181.08 139.08 186.39 137.28 191.95 137.58 C 197.09 137.53 201.92 139.42 206.79 140.78 C 203.82 132.80 200.08 125.13 196.74 117.30 C 194.86 113.21 193.33 108.95 191.00 105.08 Z" />
<path fill="#403f41" opacity="1.00" d=" M 143.72 106.97 C 143.52 104.06 146.03 101.17 149.03 101.41 C 152.00 101.24 154.43 104.08 154.28 106.96 C 154.54 121.75 154.45 136.55 154.42 151.35 C 148.81 151.20 142.88 150.15 138.47 146.42 C 127.42 137.20 116.83 127.43 106.00 117.96 C 104.27 116.45 102.38 115.14 100.48 113.85 C 100.20 124.91 100.41 135.97 100.33 147.02 C 100.57 149.97 97.91 152.58 95.00 152.49 C 92.16 152.49 89.71 149.86 89.83 147.04 C 89.78 132.16 89.89 117.28 89.82 102.40 C 96.49 102.23 103.33 104.19 108.42 108.62 C 120.27 118.94 131.70 129.74 143.70 139.89 C 143.80 128.91 143.63 117.94 143.72 106.97 Z" />
</g>
<g id="#1a7dabff">
<path fill="#1a7dab" opacity="1.00" d=" M 110.41 142.34 C 111.41 142.41 112.41 142.49 113.41 142.58 C 113.47 143.56 113.53 144.55 113.59 145.54 C 112.48 145.61 111.38 145.68 110.27 145.75 C 110.32 144.61 110.37 143.48 110.41 142.34 Z" />
<path fill="#1a7dab" opacity="1.00" d=" M 97.46 154.45 C 99.02 154.47 100.74 154.01 102.15 154.91 C 102.59 155.98 102.75 157.19 102.41 158.32 C 101.48 160.26 99.17 159.39 97.49 159.47 C 97.39 157.79 97.38 156.12 97.46 154.45 Z" />
<path fill="#1a7dab" opacity="1.00" d=" M 148.39 156.39 C 149.44 156.41 150.50 156.43 151.56 156.45 C 151.51 157.43 151.45 158.41 151.40 159.39 C 150.45 159.41 149.50 159.43 148.55 159.46 C 148.49 158.43 148.44 157.41 148.39 156.39 Z" />
<path fill="#1a7dab" opacity="1.00" d=" M 84.40 164.84 C 83.73 162.38 86.12 161.28 87.92 160.44 C 88.50 160.76 89.67 161.42 90.25 161.74 C 90.58 162.27 91.23 163.32 91.56 163.85 C 91.10 165.03 90.65 166.21 90.20 167.39 C 87.94 167.94 84.66 167.82 84.40 164.84 Z" />
<path fill="#1a7dab" opacity="1.00" d=" M 159.66 162.61 C 161.64 162.14 165.11 162.00 164.44 165.07 C 164.62 167.64 161.12 166.50 159.55 166.54 C 159.57 165.23 159.61 163.92 159.66 162.61 Z" />
<path fill="#1a7dab" opacity="1.00" d=" M 26.44 164.60 C 29.94 162.93 34.62 164.96 35.26 168.92 C 36.42 173.71 30.58 178.18 26.31 175.54 C 21.99 173.51 22.10 166.55 26.44 164.60 Z" />
<path fill="#1a7dab" opacity="1.00" d=" M 69.95 173.83 C 66.03 173.41 65.46 167.37 69.04 165.93 C 72.14 164.20 74.92 167.18 75.58 170.02 C 74.61 172.30 72.77 174.64 69.95 173.83 Z" />
<path fill="#1a7dab" opacity="1.00" d=" M 171.59 171.47 C 171.05 169.24 170.57 165.27 174.03 165.56 C 177.43 165.41 176.91 169.23 176.39 171.45 C 174.79 171.50 173.19 171.51 171.59 171.47 Z" />
<path fill="#1a7dab" opacity="1.00" d=" M 218.29 166.29 C 221.69 163.59 227.32 166.66 226.84 170.99 C 227.03 174.74 222.47 177.53 219.19 175.80 C 215.41 174.35 214.89 168.41 218.29 166.29 Z" />
<path fill="#1a7dab" opacity="1.00" d=" M 48.26 167.23 C 51.14 165.09 55.86 167.36 55.83 170.99 C 56.39 174.80 51.47 177.91 48.35 175.52 C 45.41 173.85 45.31 168.93 48.26 167.23 Z" />
<path fill="#1a7dab" opacity="1.00" d=" M 186.34 168.36 C 188.87 165.83 193.53 168.62 192.57 172.05 C 192.04 175.28 187.19 175.96 185.56 173.33 C 184.88 171.76 184.83 169.45 186.34 168.36 Z" />
<path fill="#1a7dab" opacity="1.00" d=" M 201.34 168.29 C 204.06 166.01 208.60 168.55 208.33 171.99 C 208.40 175.32 204.00 177.67 201.38 175.48 C 198.85 173.90 198.88 169.91 201.34 168.29 Z" />
</g>
</svg>

<?xml version="1.0" encoding="utf-8"?>
<!-- Generator: Adobe Illustrator 26.0.3, SVG Export Plug-In . SVG Version: 6.00 Build 0)  -->
<svg version="1.1" id="Layer_1" xmlns="http://www.w3.org/2000/svg" xmlns:xlink="http://www.w3.org/1999/xlink" x="0px" y="0px"
	 viewBox="0 0 250 250" style="enable-background:new 0 0 250 250;" xml:space="preserve">
<style type="text/css">
	.st0{fill:#FFFFFF;}
	.st1{fill:#F15D34;}
	.st2{fill:#403F41;}
	.st3{fill:#1A7DAB;}
</style>
<g id="_x23_ffffffff">
	<path class="st0" d="M38.4,106c8.2-0.4,17.2-1.7,24.4,3.2c11.8,7.5,11.8,27.2,0.2,34.8c-7.2,5-16.3,3.2-24.5,3.2
		C38.4,133.5,38.5,119.7,38.4,106z"/>
	<path class="st0" d="M191,105.1c2.3,3.9,3.9,8.1,5.7,12.2c3.3,7.8,7.1,15.5,10,23.5c-4.9-1.4-9.7-3.2-14.8-3.2
		c-5.6-0.3-10.9,1.5-16,3.3c0.4-2.1,1.1-4.1,2-6C182.3,124.9,186.4,114.9,191,105.1z"/>
</g>
<g id="_x23_f15d34ff">
	<path class="st1" d="M44.3,74.4c3.5-2.7,9.4,0.1,9.3,4.6c0.6,4.7-5.4,8.3-9.2,5.4C40.9,82.3,40.8,76.6,44.3,74.4z"/>
	<path class="st1" d="M193.3,74.3c3.4-2.1,8.4,0.7,8.4,4.8c0.5,4.2-4.6,7.7-8.3,5.5C189.3,82.7,189.2,76.1,193.3,74.3z"/>
	<path class="st1" d="M26.2,75.2c4-2.4,9.7,1.1,9.4,5.8c0.2,4.9-6.1,8.3-10,5.3C21.5,83.9,21.9,77.2,26.2,75.2z"/>
	<path class="st1" d="M218.2,75.3c4.2-2,9.4,2.1,8.7,6.7c-0.1,4.9-6.6,7.6-10.3,4.5C212.6,83.7,213.6,76.8,218.2,75.3z"/>
	<path class="st1" d="M64.4,76.5c2.2-0.8,5.2-0.7,6.6,1.5c2.1,3,0,8.2-4,7.8C61.9,86.5,60.2,78.7,64.4,76.5z"/>
	<path class="st1" d="M172.5,76.7c2.9-1.2,6.7,0.1,7.6,3.3c1.8,4.4-3.8,9.2-7.8,6.7C168.2,84.8,168.4,78.4,172.5,76.7z"/>
	<path class="st1" d="M82.4,81.5c2-0.7,4.6-0.6,5.9,1.3c1.9,3-0.4,7.7-4.2,6.9C79.8,89.7,78.8,83.3,82.4,81.5z"/>
	<path class="st1" d="M152,87c1.3-3.4,5.3-3.8,8.2-2.2c1.6,2.4,2.3,6-0.5,7.9C156.1,95.9,149.9,91.4,152,87z"/>
	<path class="st1" d="M93.5,89.9c0.6-0.3,1.9-1,2.6-1.3c0.7,0.3,2,0.9,2.7,1.3c0.1,1.9,0.2,5.1-2.7,4.7
		C93.3,94.7,93.2,91.8,93.5,89.9z"/>
	<path class="st1" d="M141.6,95.9c1.2-0.5,2.4-1,3.5-1.5c2.6,1.1,2.7,3.6,2.3,6c-1.9,0.3-3.9,0.3-5.8-0.1
		C141.6,98.9,141.6,97.4,141.6,95.9z"/>
	<path class="st1" d="M103.6,97.4c1.3,0,2.6-0.1,4-0.1c0,1.1,0,2.2,0.1,3.3c-1.3,0-2.7,0-4-0.1C103.6,99.6,103.6,98.5,103.6,97.4z"
		/>
	<path class="st1" d="M132.6,107.5c1.6-0.1,3.2-0.2,4.9-0.2c0.1,1.3,0.1,2.6,0.2,3.9c-0.7,0.3-2,1-2.7,1.4c-0.6-0.4-1.8-1.2-2.4-1.5
		C132.6,109.9,132.6,108.7,132.6,107.5z"/>
</g>
<g id="_x23_403f41ff">
	<path class="st2" d="M30.5,97.9c8.5,0.1,17-0.1,25.5,0.1c6.2,0.1,12,3.3,15.9,8.1c6.8,8.2,9.5,19.9,6.1,30.1
		c-2.2,6.9-7.4,12.8-13.9,15.9c-8.4,4.1-18.1,3.5-27.2,2.6c-3.8-0.1-6.6-4-6.4-7.7C30.4,130.6,30.4,114.2,30.5,97.9 M38.4,106
		c0.1,13.8,0,27.5,0.1,41.3c8.2,0,17.3,1.8,24.5-3.2c11.7-7.6,11.6-27.3-0.2-34.8C55.6,104.3,46.6,105.6,38.4,106z"/>
	<path class="st2" d="M187.3,98.6c4.4-1.1,10.5-0.3,12.4,4.5c6.3,15.1,12.9,30.1,19.1,45.2c1.9,3.9-3,8.6-6.9,6.7
		c-2.6-1.6-4.6-4.1-7.2-5.7c-7.9-5.1-18.7-5.1-26.8-0.3c-3,1.6-5.1,4.4-8,6.1c-3.9,1.9-8.6-2.8-6.8-6.7
		c5.3-15.1,12.3-29.7,18.5-44.5C182.5,101.2,184.7,99.2,187.3,98.6 M191,105.1c-4.6,9.8-8.7,19.9-13.1,29.8c-0.9,1.9-1.6,3.9-2,6
		c5.2-1.8,10.5-3.6,16-3.3c5.1-0.1,10,1.8,14.8,3.2c-3-8-6.7-15.7-10-23.5C194.9,113.2,193.3,108.9,191,105.1z"/>
	<path class="st2" d="M143.7,107c-0.2-2.9,2.3-5.8,5.3-5.6c3-0.2,5.4,2.7,5.2,5.5c0.3,14.8,0.2,29.6,0.1,44.4
		c-5.6-0.2-11.5-1.2-15.9-4.9c-11.1-9.2-21.6-19-32.5-28.5c-1.7-1.5-3.6-2.8-5.5-4.1c-0.3,11.1-0.1,22.1-0.2,33.2
		c0.2,2.9-2.4,5.6-5.3,5.5c-2.8,0-5.3-2.6-5.2-5.5c-0.1-14.9,0.1-29.8,0-44.6c6.7-0.2,13.5,1.8,18.6,6.2
		c11.8,10.3,23.3,21.1,35.3,31.3C143.8,128.9,143.6,117.9,143.7,107z"/>
</g>
<g id="_x23_1a7dabff">
	<path class="st3" d="M110.4,142.3c1,0.1,2,0.2,3,0.2c0.1,1,0.1,2,0.2,3c-1.1,0.1-2.2,0.1-3.3,0.2
		C110.3,144.6,110.4,143.5,110.4,142.3z"/>
	<path class="st3" d="M97.5,154.4c1.6,0,3.3-0.4,4.7,0.5c0.4,1.1,0.6,2.3,0.3,3.4c-0.9,1.9-3.2,1.1-4.9,1.1
		C97.4,157.8,97.4,156.1,97.5,154.4z"/>
	<path class="st3" d="M148.4,156.4c1.1,0,2.1,0,3.2,0.1c-0.1,1-0.1,2-0.2,2.9c-0.9,0-1.9,0-2.8,0.1
		C148.5,158.4,148.4,157.4,148.4,156.4z"/>
	<path class="st3" d="M84.4,164.8c-0.7-2.5,1.7-3.6,3.5-4.4c0.6,0.3,1.8,1,2.3,1.3c0.3,0.5,1,1.6,1.3,2.1c-0.5,1.2-0.9,2.4-1.4,3.5
		C87.9,167.9,84.7,167.8,84.4,164.8z"/>
	<path class="st3" d="M159.7,162.6c2-0.5,5.4-0.6,4.8,2.5c0.2,2.6-3.3,1.4-4.9,1.5C159.6,165.2,159.6,163.9,159.7,162.6z"/>
	<path class="st3" d="M26.4,164.6c3.5-1.7,8.2,0.4,8.8,4.3c1.2,4.8-4.7,9.3-8.9,6.6C22,173.5,22.1,166.6,26.4,164.6z"/>
	<path class="st3" d="M69.9,173.8c-3.9-0.4-4.5-6.5-0.9-7.9c3.1-1.7,5.9,1.2,6.5,4.1C74.6,172.3,72.8,174.6,69.9,173.8z"/>
	<path class="st3" d="M171.6,171.5c-0.5-2.2-1-6.2,2.4-5.9c3.4-0.1,2.9,3.7,2.4,5.9C174.8,171.5,173.2,171.5,171.6,171.5z"/>
	<path class="st3" d="M218.3,166.3c3.4-2.7,9,0.4,8.6,4.7c0.2,3.8-4.4,6.5-7.6,4.8C215.4,174.4,214.9,168.4,218.3,166.3z"/>
	<path class="st3" d="M48.3,167.2c2.9-2.1,7.6,0.1,7.6,3.8c0.6,3.8-4.4,6.9-7.5,4.5C45.4,173.9,45.3,168.9,48.3,167.2z"/>
	<path class="st3" d="M186.3,168.4c2.5-2.5,7.2,0.3,6.2,3.7c-0.5,3.2-5.4,3.9-7,1.3C184.9,171.8,184.8,169.4,186.3,168.4z"/>
	<path class="st3" d="M201.3,168.3c2.7-2.3,7.3,0.3,7,3.7c0.1,3.3-4.3,5.7-6.9,3.5C198.9,173.9,198.9,169.9,201.3,168.3z"/>
</g>
</svg>
